X: 6785
T: Chapel Bell, The
R: jig
M: 6/8
K: Edorian
|:B2E EFA|Bde d2e|dBB BAB|d2e dBA|
B2E EFA|Bde d2e|dBB BAF|AFE EFA:|
|:B2e efe|dff f2e|dBB BAB|d2e dBA|B2e efe|
[1 dff f2e|dBB BAF|AFE EFA:|2 def b2a|fed BAF|AFE EFA||

